X:9191
T:Laeg de Maw
S:unknown, photocopy
I:speed 250
M:2/4l
K:G
|:B2B2 d4 | G2G2 B4 | c2cB AcBA | G2B2 d4 | 
B2B2 d4 | G2G2 B4 | c2cB AcBA | G2B2 G4 :|
K:D
|: EF | ABAF ABAF | ABdA fAaA | g2gf egfe | f2fe d2FG |
ABAF ABAF | ABdA fAaA | gagf dgfe |[1d2f2d2 FG:|[2 d2f2 d2  |


